!!!OTL: Joe Livermore
!!!ONM: 124.
**kern
*clefG2
*k[] 
*C:
!Referent unclear -- Conklin/Pearce
*M6/8
*MM80
{8c
=1
8d
8d
8g
8g
8g
8d
=2
8d
8d
8d
4g}
{8c
=3
8g
8g
8g
8e
8d
8c
=4
8c
8B
8c
4d}
{8c
=5
8d
8d
8d
8g
8g
8g
=6
8e
8d
8c
4g}
{16g
16g
=7
8a
8f
8f
8e
8d
8c
=8
(8c
8d)
8c
8B}
=||
{8A
8G
=9
4.c
8A
8G
8G
=10
[4.G
4G]}
==
*-
!!!CNT: Folksongs of Maritime Canada
!!!MRD: 1928///-1932///
!!!OCL: Helen Creighton
!!!YOR: Songs and Ballads from Nova Scotia
!!!PPR: J.M. Dent & Sons, Limited
!!!PPP: Toronto, Canada
!!!PDT: 1932///
!!!reprint: Dover Publications, 1992: ISBN 0-486-21703-5
!!!ENC1: Craig Stuart Sapp (music and bibliographic data)                       
!!!ENC2: Marcus Pearce (phrase markings and key designations)                   
!!!ENC3: Darrell Conklin (phrase markings and key designations)   
!!!END: 2002/04/10/
!!!EEV: 2004/06/05
!!!MPN: Mr. Hiram O. Hilshie
!!!PPG: 268
!!!EFL: 126/152
!!!ARE: Canada; Nova Scotia
!!!verses: 4
!!!VTS: 3779138984
